X:389
T:Eileen Curran
R:reel
H:Also played in Ador, #787
D:Kevin Burke: If the Cap Fits
Z:id:hn-reel-389
M:C|
K:Gdor
BAGF DGGB|AFcF dFcA|BAGF DGGA|BABc dgga|
(3bag af gfde|fdcB AFFA|BAGF DGGA|1 BdcA BGGA:|2 BdcA BGG2||
|:g2gf gbag|f2fe fgaf|dggf ~g3a|(3bag af dgga|
(3bag af gfde|fdcB AFFA|BAGF DGGA|1 BdcA BGG2:|2 BdcA BGGA||
